X:12
T:Green Fingers
T:to the tune of "William Taylor's Table-Top Hornpipe"
Z:Dave Holland dave@biff.org.uk
M:4/4
L:1/8
P:AABABABA
K:Am
P:A - figure
"Am"A2A2 ABcA|"G"BcBA "Em"G2E2|"C"e2e2 "G"d3c|"G"BAGA BcdB|
"Am"A2A2 "F"ABcA|"G"BcBA "Em"G2E2"*"|"Am"edcB AcBG|1"Am first time only"A2z2 c3B:|"Am"A2z2c3d||
P:B - chorus
"Am"ecAc e2ee|"G"dBGB d2dd|"Am"cBAG A2Ac|"G"BAGA Bcd2|
"Am(C)"ecAc e2ee|"G"dBGB d4|"Am"cBAG AcBG|"Am"A2A2 AAcB||
